X:2

T:The Whistler of Rosslea

R:Reel

C:Ed Reavy

M:2/2

L:1/8

Z:Joe Reavy

N:Ed was to a fair once in Rosslea and heard this whistler. He had a

N:whistling range that could easily match the register

N:of a fiddle or flute. And he had all the embellishments of a great

N:traditional player, too. He sold fish in the market places and charmed

N:his customers with choice tunes-many of his own making.

K:D

GABc (3dcB cBA | =fdcA BGGE | =FGAB c2 Bc | (3dcB (3cBA BGAF |

GBAc Bdce | dgfa gfdc | (3Bcd =fd c2 A^F |1 G2 AF DGGF :|2 G2 AF DG G2 |

|: g2 dg Bgdg | gbag fdde | =f2 cf Afcf | =fedc AG=FA | Gggf gfdc | Bcde fdcd |

gfde =fdcA |1 GBAF DG G2 :|2 GBAF DGGF ||

                       

WHISTLER HURLEY, THE. Irish, Hornpipe. D Major. Standard tuning. AABB. Source for notated version: Oliver Roland [McGuire & Keegan]. McGuire & Keegan (Irish Tunes by the 100), 1975; No. 81, pg. 22.

                       

WHISTLER'S WALTZ [1]. Old‑Time, Waltz. D Major. Standard tuning. AA'B. A modern composition (1966) by Lloyd Wanzer, Weiser (Idaho?). Source for notated version: Hollis Taylor [Phillips]. Phillips (Traditional American Fiddle Tunes), vol. 2, 1995; pg. 325.

 

WHISTLER’S WALTZ [2]. Old-Time, Waltz. D Major. Standard tuning. ABC. Source Malloy said it was “an old tune played at fiddle contests.” The tune is not related to “Whistler’s Waltz” [1], by Lloyd Wanzer. John Beland remarks in a communication that it is odd that the dissimilar tunes are similarly titled, for Wanzer and Harold Allen (who recorded the tune) knew each other, and are credited with co-composing “The Black Velvet Waltz.”  Source for notated version: Frank Malloy [Devil’s Box]. The Devil’s Box, vol. 16, No. 4, pg. 13. American Heritage Music Corporation AH-4-1-4, Harold Allen – “Fiddling Around.”

                       

WHISTLING COON, THE. Old‑Time. F Major. Standard tuning. USA, Mississippi. A composition of Carroll County, Mississippi, fiddler Willie Narmour (b. 1889). Musical Traditions MT 104, Narmour & Smith - "Where the Southern Crosses the Dog: Mississippi Fiddle Music 1928-35."

 

WHISTLING BARBER. AKA and see "The Mills are Grinding [1]."

 

WHISTLING FARMER, THE. Canadian, Jig. G Major. Standard tuning. AABB. Messer (Anthology of Favorite Fiddle Tunes), 1980; No. 145, pg. 94.

 

WHISTLING MIKE (Micil/Miceal an Feadaire). Irish, Hornpipe. G Major. Standard tuning. AABB. Bayard (1981) thinks the tune closely related to "The Ladies Dressed in Their Garments So Green" and "The Dusinberry March;" also see "The Tin Ware Lass" and "Pewter Mug." See also “Kingston.” O'Neill (Krassen), 1976; pg. 192. O'Neill (Music of Ireland: 1850 Melodies), 1903/1979; No. 1679, pg. 312. O'Neill (Dance Music of Ireland: 1001 Gems), 1907/1986; No. 887, pg. 153.

